X: 1582
T: Angus MacKinnon
R: jig
M: 6/8
K: Aminor
|:Bd|e2A ABA|ged efg|B2G GAG|d2A BAG|
e2A ABA|ged e3|gdd efg|BAA A2:|
|:Bd|e3 g2d|efg e2d|B2G GAG|d2A BAG|
e3 g2d|efg e3|gdd efg|BAA A2:|
|:Bd|e2A ABc|ABc cBA|GAB BAG|dBG BAG|
e2A ABc|ABc cBA|GBd efg|BAA A2:|
|:Bd|e2A gfg|efg e2d|B2G GAG|d2A BAG|
e2A gfg|efg e3|gdd efg|BAA A2:|

